!!!COM: Bach, Johann Sebastian
!!!OPR: Das wohltemperirte Clavier, Band II
!!!XEN: Well-Tempered Clavier, Volume II
!!!OTL: Prelude in E Minor
!!!OMV: Prelude X
!!!SCT: BWV 879
!!!SCA: Thematisch-systematisches Verzeichnis der musikalischen Werke Johann Sebastian Bach: Bach-Werke-Verzeichnis (Schmieder)
!!!YOR: Bach Gesellschaft Edition xiv
!!!EED: Walter Hewlett
!!!ENC: Walter Hewlett
!!!CDT: 1685/3//-1750/7/28/
!!!OCY: Deutschland
!!!YEC: Copyright (c) 1994, 2000 Center for Computer Assisted Research in the Humanities
!!!YEM: Rights to all derivative editions reserved
!!!YEM: Refer to licensing agreement for further details
!!!YEN: United States of America
**kern	**dynam
*I:	*I:
*>[A,A,B,C,C]	*
*>A	*
*clefG6	*
*k[f#]	*
*e:	*
*M3/8	*
=1-	=1-
*^	*
16r	8E/L	.
16g/LL	.	.
16a/	8EE/J	.
16b/	.	.
16cc/	8r	.
16a/JJ	.	.
=2	=2	=2
16b/LL	4.r	.
16g/	.	.
16f#/	.	.
16e/	.	.
16d#/	.	.
16a/JJ	.	.
=3	=3	=3
32g/LLL	16r	.
32f#/J	.	.
16e/J	16G\LL	.
8ee/J	16A\	.
.	16B\	.
8r	16c\	.
.	16A\JJ	.
=4	=4	=4
32dd#\LLL	16B\LL	.
32cc#\J	.	.
16b\J	16G\	.
8aa\J	16F#\	.
.	16E\	.
8r	16D#\	.
.	16A\JJ	.
=5	=5	=5
16r	16G\LL	.
16g/LL	16E\	.
16a/	16F#\	.
16b/	16G\	.
16cc/	16A\	.
16a/JJ	16F#\JJ	.
=6	=6	=6
16b/LL	8G\L	.
16g/	.	.
16f#/	8A\	.
16e/	.	.
16d#/	8B\J	.
16a/JJ	.	.
=7	=7	=7
16g\LL	8E\L	.
16b\	.	.
16cc\	8D\	.
16dd\	.	.
16ee\	8C\J	.
16cc\JJ	.	.
=8	=8	=8
16dd\LL	8BB/L	.
16b\	.	.
16a\	8C/	.
16g\	.	.
16f#\	8D/J	.
16cc\JJ	.	.
=9	=9	=9
16b\LL	8GG/L	.
16dd\	.	.
16ee\	8FF#/	.
16ff#\	.	.
16gg\	8EE/J	.
16ee\JJ	.	.
=10	=10	=10
16ff#\LL	8DD/L	.
16dd\	.	.
16cc#\	8EE/	.
16b\	.	.
16a#\	8FF#/J	.
16ee\JJ	.	.
=11	=11	=11
16dd\LL	16BB\LL	.
16ff#\	16D\	.
16ee\	16E\	.
16dd\	16F#\	.
16cc#\	16G\	.
16b\JJ	16E\JJ	.
=12	=12	=12
32a#/LLL	16F#/LL	.
32g#/J	.	.
16f#/J	16D/	.
8ee/J	16C#/	.
.	16BB/	.
8r	16AA#/	.
.	16E/JJ	.
=13	=13	=13
16r	16D/LL	.
16dd\LL	16BB/	.
16ee\	16C#/	.
16ff#\	16D/	.
16gg\	16E/	.
16ee\JJ	16C#/JJ	.
=14	=14	=14
16ff#\LL	8D\L	.
16dd\	.	.
16cc#\	8E\	.
16b\	.	.
16a#\	8F#\J	.
16ee\JJ	.	.
=15	=15	=15
16dd\LL	8BB\L	.
16b\	.	.
16cc#\	8B\	.
16dd\	.	.
16ee\	8A#\J	.
16cc#\JJ	.	.
=16	=16	=16
16dd\LL	8B\L	.
16b\	.	.
16a\	8F#\	.
16g\	.	.
16f#\	8D\J	.
16ccn\JJ	.	.
=17	=17	=17
16b\LL	16G\LL	.
16g\	16B\	.
16ee\	16c\	.
16b\	16d\	.
16cc\	16e\	.
16aa\JJ	16c\JJ	.
=18	=18	=18
16b\LL	16d\LL	.
16dd\J	16B\	.
8gg\	16A\	.
.	16G\	.
8aT\J	16F#\	.
.	16c\JJ	.
=19	=19	=19
16g\LL	16B\LL	.
16e\	16G\	.
16cc\	16A\	.
16g\	16B\	.
16a\	16c\	.
16ff#\JJ	16A\JJ	.
=20	=20	=20
16g\LL	16B\LL	.
16b\J	16G\	.
8ee\	16F#\	.
.	16E\	.
8f#t\J	16D#\	.
.	16A\JJ	.
=21	=21	=21
16e/LL	16G\LL	.
16g/	16E\	.
16a/	16F#\	.
16b/	16G\	.
16cc/	16A\	.
16a/JJ	16F#\JJ	.
=22	=22	=22
32b/LLL	16G\LL	.
32a/J	.	.
16g/J	16E\	.
8ffn/J	16D\	.
.	16C\	.
8r	16BB\	.
.	16Fn\JJ	.
=23	=23	=23
16r	16E/LL	.
16e/LL	16GG/	.
16f#/	16AA/	.
16g/	16BB/J	.
16a/	[8C/J	.
16f#/JJ	.	.
=24	=24	=24
16g/LL	16C/LL]	.
16d/	16BB/	.
16e/	16C#/	.
16f#/J	16D/	.
[8g/J	16E/	.
.	16C#/JJ	.
=25	=25	=25
16g/LL]	16D/LL	.
16f#/	16AA/	.
16g#/	16BB/	.
16a/	16Cn/J	.
16b/	[8D/J	.
16g#/JJ	.	.
=26	=26	=26
16a/LL	16D/LL]	.
16e/	16C#/	.
16f#/	16D#/	.
16gn/J	16E/	.
[8a/J	16F#/	.
.	16D#/JJ	.
=27	=27	=27
16a/LL]	16E\LL	.
16g#/	16BB\	.
16a#/	16C#\	.
16b/	16Dn\J	.
16cc#/	[8E\J	.
16a#/JJ	.	.
=28	=28	=28
16b/LL	16E\LL]	.
16f#/	16D\	.
16g#/	16E\	.
16a#/J	16F#\	.
[8b/J	16G\	.
.	16E\JJ	.
=29	=29	=29
16b\LL]	[4.F#t\	.
16a#\	.	.
16b\	.	.
16cc#\	.	.
16dd\	.	.
16b\JJ	.	.
=30	=30	=30
16cc#/LL	4.F#tz\_xx	z
16b/	.	.
16a#/	.	.
16g#/	.	.
16f#/	.	.
16e/JJ	.	.
=31	=31	=31
16d/LL	4.F#tz\_xx	z
16f#/	.	.
16g#/	.	.
16a#/	.	.
16b/	.	.
16g#/JJ	.	.
=32	=32	=32
16a#/LL	4.F#tz\]xx	z
16g#/	.	.
16f#/	.	.
16e/	.	.
16d/	.	.
16c#/JJ	.	.
=33	=33	=33
[4.Bt/	16r	.
.	16D#\LL	.
.	16E\	.
.	16F#\	.
.	16G\	.
.	16E\JJ	.
=34	=34	=34
4.Btz/_xx	16F#\LL	z
.	16E\	.
.	16D#\	.
.	16C#\	.
.	16BB\	.
.	16AA\JJ	.
=35	=35	=35
4.Btz/_xx	16GG/LL	z
.	16BB/	.
.	16C#/	.
.	16D#/	.
.	16E/	.
.	16C#/JJ	.
=36	=36	=36
4.Btz/_xx	16D#/LL	z
.	16C#/	.
.	16BB/	.
.	16AA/	.
.	16GG/	.
.	16FF#/JJ	.
=37	=37	=37
8B/]	16EE/LL	.
.	16Dn/	.
[4e/	16C#/	.
.	16BB/	.
.	16AA#/	.
.	16C#/JJ	.
=38	=38	=38
16e/LL]	8FF#/	.
16f#/	.	.
16e/	[4G\	.
16d/	.	.
16c#/	.	.
16e/JJ	.	.
=39	=39	=39
8A#/	16G\LL]	.
.	16F#\	.
[4cc#\	16E\	.
.	16D\	.
.	16C#\	.
.	16E\JJ	.
=40	=40	=40
16cc#\LL]	8AA#/	.
16dd\	.	.
16cc#\	[4e\	.
16b\	.	.
16a#\	.	.
16cc#\JJ	.	.
=41	=41	=41
8f#/	16e\LL]	.
.	16d\	.
[4gg\	16c#\	.
.	16B\	.
.	16A#\	.
.	16c#\JJ	.
=42	=42	=42
16gg\LL]	8F#\L	.
16ff#\	.	.
16ee\	8G#\	.
16dd\	.	.
16cc#\	8A#\J	.
16ee\JJ	.	.
=43	=43	=43
[4.dd\	16B\LL	.
.	16A#\	.
.	16B\	.
.	16c#\	.
.	16d\	.
.	16B\JJ	.
=44	=44	=44
16dd\LL]	16E#\LL	.
16cc#\	16F#\	.
16b\	16G#\	.
16an\	16An\	.
16g#\	16B\	.
16b\JJ	16G#\JJ	.
=45	=45	=45
16e#\LL	8C#\L	.
16dd\	.	.
16cc#\	8E#\	.
16b\	.	.
16a#\	8F#\J	.
16cc#\JJ	.	.
=46	=46	=46
16ee\LL	8Gn/L	.
16gg\	.	.
16ff#\	8AA#/	.
16ee\	.	.
16dd\	8BB/J	.
16ff#\JJ	.	.
=47	=47	=47
8b\L	8GG/L	.
8cc#\	8EE/	.
8a#S\J	8FF#/J	.
=48a	=48a	=48a
*>1st ending	*	*
4.b\	16BB\LL	.
.	16C#\	.
.	16D#\	.
.	16E\	.
.	16F#\	.
.	16D#\JJ	.
=48b:|!	=48b:|!	=48b:|!
*>2nd ending	*	*
*>B	*	*
4.b\	4.BB/	.
=49!|:	=49!|:	=49!|:
*>C	*	*
[4.ff#\	16r	.
.	16B\LL	.
.	16A\	.
.	16G\	.
.	16F#\	.
.	16A\JJ	.
=50	=50	=50
8ff#\L]	16G\LL	.
.	16B\	.
16ee\L	16c#\	.
16ff#\J	16d\	.
8gg\J	16e\	.
.	16A\JJ	.
=51	=51	=51
(8ff#\L	16d\LL	.
.	16G\	.
8eeT\)	16A\	.
.	16B\	.
8a\J	16cn\	.
.	16F#\JJ	.
=52	=52	=52
8dd\L	16B\LL	.
.	16E\	.
16ccn\L	16F#\	.
16b\J	16G\	.
[8cc\J	16A\	.
.	16D#\JJ	.
=53	=53	=53
16cc/LL]	8G\L	.
16b/	.	.
16a/	8A\	.
16g/	.	.
16f#/	8B\J	.
16a/JJ	.	.
=54	=54	=54
16g\LL	8E\L	.
16b\	.	.
16cc\	8D\	.
16dd\	.	.
16ee\	8C\J	.
16a\JJ	.	.
=55	=55	=55
16dd\LL	8BB/L	.
16g#\	.	.
16a\	8EE/	.
16b\	.	.
16cc\	8AA/J	.
16f#\JJ	.	.
=56	=56	=56
16b/LL	16DD/LL	.
16e/	16CC/	.
16f#/	16DD/	.
16g#/	16EE/J	.
16a/	8FFn/J	.
16d#/JJ	.	.
=57	=57	=57
8g#/L	16EE/LL	.
.	16E/	.
8a/	16D/	.
.	16C/	.
8b/J	16BB/	.
.	16D/JJ	.
=58	=58	=58
16e\LL	8C\L	.
16ee\	.	.
16dd\	8D\	.
16cc\	.	.
16b\	8E\J	.
16dd\JJ	.	.
=59	=59	=59
8cc\L	16AA\LL	.
.	16A\	.
8dd\	16G\	.
.	16Fn\	.
8ee\J	16E\	.
.	16G\JJ	.
=60	=60	=60
16a\LL	8Fn\L	.
16aa\	.	.
16gg\	8G\	.
16ffn\	.	.
16ee\	8A\J	.
16gg\JJ	.	.
=61	=61	=61
8ffn\L	16D\LL	.
.	16d\	.
8gg\	16c\	.
.	16B\	.
[8aa\J	16A\	.
.	16c\JJ	.
=62	=62	=62
16aa\LL]	8B\L	.
16dd\	.	.
16cc\	8c\	.
16b\	.	.
16a\	8d\J	.
16cc\JJ	.	.
=63	=63	=63
8b\L	16r	.
.	16G\LL	.
8cc\	16Fn\	.
.	16E\	.
[8dd\J	16D\	.
.	16F\JJ	.
=64	=64	=64
16dd\LL]	16GG/LL	.
16g\	16Fn/	.
16cc\	16E/	.
16dd\J	16D/	.
[8ee\J	16C/	.
.	16E/JJ	.
=65	=65	=65
16ee\LL]	16GG/LL	.
16cc\	16E/	.
16dd\	16D/	.
16ee\J	16C/	.
[8ffn\J	16BB/	.
.	16D/JJ	.
=66	=66	=66
16ff\LL]	8GG/L	.
16gg\	.	.
16ffn\	8AA/	.
16ee\	.	.
16dd\	8BB/J	.
16ff\JJ	.	.
=67	=67	=67
16ee/LL	16C\LL	.
16e/	16d\	.
16f#/	16c\	.
16g#/	16B\	.
16a/	16A\	.
16f#/JJ	16c\JJ	.
=68	=68	=68
16dd/LL	16BB\LL	.
16f#/	16c\	.
16g#/	16B\	.
16a/	16A\	.
16b/	16G#\	.
16g#/JJ	16B\JJ	.
=69	=69	=69
16cc\LL	16AA\LL	.
16g#\	16B\	.
16a\	16A\	.
16b\	16G#\	.
16cc\	16F#\	.
16a\JJ	16A\JJ	.
=70	=70	=70
16cc/LL	8D#\L	.
16b/	.	.
16a/	8E\	.
16g#/J	.	.
[8a/J	8Fn\J	.
=71	=71	=71
16a/LL]	16E/LL	.
16b/J	16Dn/J	.
8.bt/	8E/	.
.	8EE/J	.
16a/Jk	.	.
=72	=72	=72
4.a/	16AA\LL	.
.	16A\	.
.	16G\	.
.	16F#\	.
.	16E\	.
.	16G\JJ	.
=73	=73	=73
16r	8F#\L	.
16dd\LL	.	.
16cc\	8D\	.
16b\	.	.
16a\	8F#\J	.
16cc\JJ	.	.
=74	=74	=74
16b\LL	8G\L	.
16dd\	.	.
16ee\	8F#\	.
16ff#\	.	.
16gg\	8E\J	.
16cc#\JJ	.	.
=75	=75	=75
16ff#\LL	16D\LL	.
16b\	16G\	.
16ccn\	16A\	.
16dd\	16B\J	.
16ee\	[8c\J	.
16a\JJ	.	.
=76	=76	=76
16dd/LL	16c\LL]	.
16g/	16B\	.
16a/	16A\	.
16b/	16G\J	.
16cc/	[8A\J	.
16f#/JJ	.	.
=77	=77	=77
8b\L	16A\LL]	.
.	16B\	.
8.dd#t\	16A\	.
.	16G\	.
.	16F#\	.
32cc#\LL	16A\JJ	.
32dd#\JJJ	.	.
=78	=78	=78
8ee\L	16G\LL	.
.	16B\	.
8ff#S\	16c#\	.
.	16d#\	.
[8gg\J	16e\	.
.	16A\JJ	.
=79	=79	=79
16gg\LL]	16dn\LL	.
16ff#\	16G\	.
16ee\	16A\	.
16dd#\J	16B\	.
[8ee\J	16c\	.
.	16F#\JJ	.
=80	=80	=80
16ee\LL]	16B\LL	.
16ddn\	16E\	.
16cc\	16F#\	.
16b\	16G\	.
16cc\	16A\	.
16aa\JJ	16D\JJ	.
=81	=81	=81
16b/LL	16G\LL	.
16d/	16F#\	.
16e/	16G\	.
16f#/J	16A\	.
[8g/J	16B\	.
.	16c#\JJ	.
=82	=82	=82
16g/LL]	16d\LL	.
16f#/	16A\	.
16g#/	16B\	.
16a/	16cn\J	.
16b/	[8d\J	.
16g#/JJ	.	.
=83	=83	=83
16a/LL	16d\LL]	.
16e/	16c#\	.
16f#/	16d#\	.
16gn/J	16e\	.
[8a/J	16f#\	.
.	16d#\JJ	.
=84	=84	=84
16a/LL]	16e\LL	.
16g/	16E\	.
16a/	16F#\	.
16b/	16G\	.
16cc/	16A\	.
16a/JJ	16F#\JJ	.
=85	=85	=85
16b\LL	8G\L	.
16dd#\	.	.
16ee\	8F#\	.
16ff#\	.	.
16gg\	8E\J	.
16ee\JJ	.	.
=86	=86	=86
16ff#\LL	[4.Bt\	.
16ee\	.	.
16dd#\	.	.
16cc#\	.	.
16b\	.	.
16a\JJ	.	.
=87	=87	=87
16g\LL	4.Btz\_xx	z
16b\	.	.
16cc#\	.	.
16dd#\	.	.
16ee\	.	.
16cc#\JJ	.	.
=88	=88	=88
16dd#\LL	4.Btz\]xx	z
16cc#\	.	.
16b\	.	.
16a\	.	.
16g\	.	.
16f#\JJ	.	.
=89	=89	=89
[4.eT/	16r	.
.	16G#\LL	.
.	16A\	.
.	16B\	.
.	16c\	.
.	16A\JJ	.
=90	=90	=90
4.eTz/_xx	16B\LL	z
.	16A\	.
.	16G#\	.
.	16F#\	.
.	16E\	.
.	16D\JJ	.
=91	=91	=91
4.eTz/_xx	16C\LL	z
.	16E\	.
.	16F#\	.
.	16G#\	.
.	16A\	.
.	16F#\JJ	.
=92	=92	=92
8e/]	16G#\LL	.
.	16F#\	.
[4dd\	16E\	.
.	16D\	.
.	16C\	.
.	16BB\JJ	.
=93	=93	=93
16dd\LL]	8AA\L	.
16ee\	.	.
16dd\	8E\	.
16cc\	.	.
16b\	8G#\J	.
16dd\JJ	.	.
=94	=94	=94
8cc\L	16A\LL	.
.	16B\	.
8ee\	16A\	.
.	16Gn\	.
[8aa\J	16F#\	.
.	16A\JJ	.
=95	=95	=95
16aa\LL]	8D#\	.
16bb\	.	.
16aa\	[4c\	.
16gg\	.	.
16ff#\	.	.
16aa\JJ	.	.
=96	=96	=96
8dd#\	16c\LL]	.
.	16A\	.
[4ccc\	16F#\	.
.	16A\	.
.	16D#\	.
.	16F#\JJ	.
=97	=97	=97
16ccc\LL]	8BB\L	.
16bb\	.	.
16aa\	8.d#t\	.
16gg\	.	.
16ff#\	.	.
16aa\JJ	32c#\LL	.
.	32d#\JJJ	.
=98	=98	=98
[4.gg\	16e\LL	.
.	16d#\	.
.	16e\	.
.	16f#\	.
.	16g\	.
.	16e\JJ	.
=99	=99	=99
16gg\LL]	16A#\LL	.
16ff#\	16B\	.
16ee\	16c#\	.
16ddn\	16dn\	.
16cc#\	16e\	.
16ee\JJ	16c#\JJ	.
=100	=100	=100
16a#\LL	8F#\L	.
16gg\	.	.
16ff#\	8A#\	.
16ee\	.	.
16dd#\	8B\J	.
16ff#\JJ	.	.
=101	=101	=101
16an/LL	8cn\L	.
16cc/	.	.
16b/	8D#\	.
16a/	.	.
16g/	8E\J	.
16b/JJ	.	.
=102	=102	=102
8e/L	8C/L	.
8f#/	8AA/	.
8d#S/J	8BB/J	.
=103	=103	=103
16e/LL	16CC/LL	.
16g#/	16EE/	.
16a/	16FF#/	.
16b/	16GG#/	.
16cc/	16AA/	.
16a/JJ	16FF#/JJ	.
=104	=104	=104
16b/LL	16GG#/LL	.
16a/	16BB/	.
16g#/	16C/	.
16f#/	16D/	.
16e/	16E/	.
16dd/JJ	16F#/JJ	.
=105	=105	=105
16cc#\LL	8Gn\L	.
16dd#\	.	.
16ee\	8F#\	.
16ff#\	.	.
16gg\	8E\J	.
16ee\JJ	.	.
=106	=106	=106
16ff#\LL	8D#/L	.
16ee\	.	.
16dd#\	8BB/	.
16cc#\	.	.
16b\	8D#/J	.
16a\JJ	.	.
=107	=107	=107
8g/L	8E/L	.
8a/	8AA/	.
8f#S/J	8BB/J	.
=108	=108	=108
4.e/	4.EE/	.
==:|!	==:|!	==:|!
*-	*-	*-
!!!RWG: Key is interpreted using the Humdrum key tool.
!!!AFT: stage2
!!!END: 1994/02/08/
!!format changes:
!!content changes:
!!public access: complete
!!!KEY: 3321474914
!!!EMD: Converted from MuseData to Humdrum Dec 19, 2000, by Andreas Kornstaedt using muse2kern.
